src/lib/packages/icons/src/assets/filled/rotate-circle.svg

<svg width="24" height="24" viewBox="0 0 24 24" fill="none" xmlns="http://www.w3.org/2000/svg">
<path d="M12 2C6.477 2 2 6.477 2 12C2 17.523 6.477 22 12 22C17.523 22 22 17.523 22 12C22 6.477 17.523 2 12 2ZM17.0701 13.3069C16.4891 15.6279 14.404 17.25 12 17.25C10.556 17.25 9.218 16.648 8.25 15.656V16C8.25 16.414 7.914 16.75 7.5 16.75C7.086 16.75 6.75 16.414 6.75 16V13.5C6.75 13.086 7.086 12.75 7.5 12.75H7.78809C7.79609 12.75 7.80304 12.75 7.81104 12.75H10C10.414 12.75 10.75 13.086 10.75 13.5C10.75 13.914 10.414 14.25 10 14.25H9.00488C9.70088 15.176 10.802 15.75 12 15.75C13.715 15.75 15.201 14.5961 15.615 12.9431C15.716 12.5411 16.1309 12.2999 16.5239 12.3979C16.9269 12.4979 17.1711 12.9049 17.0701 13.3069ZM17.25 10.5C17.25 10.914 16.914 11.25 16.5 11.25H16.2129C16.2039 11.25 16.195 11.251 16.186 11.25H14C13.586 11.25 13.25 10.914 13.25 10.5C13.25 10.086 13.586 9.75 14 9.75H14.9951C14.2991 8.824 13.198 8.25 12 8.25C10.285 8.25 8.79901 9.40388 8.38501 11.0569C8.30001 11.3979 7.99396 11.625 7.65796 11.625C7.59696 11.625 7.5361 11.618 7.4751 11.603C7.0731 11.502 6.82896 11.0951 6.92896 10.6931C7.50995 8.37212 9.59502 6.75 11.999 6.75C13.443 6.75 14.781 7.35199 15.749 8.34399V8C15.749 7.586 16.085 7.25 16.499 7.25C16.913 7.25 17.249 7.586 17.249 8V10.5H17.25Z" fill="currentColor"/>
</svg>

<svg xmlns="http://www.w3.org/2000/svg" width="24" height="24" fill="none"><path fill="currentColor" d="M12 2C6.477 2 2 6.477 2 12s4.477 10 10 10 10-4.477 10-10S17.523 2 12 2Zm5.07 11.307A5.213 5.213 0 0 1 12 17.25a5.24 5.24 0 0 1-3.75-1.594V16a.75.75 0 0 1-1.5 0v-2.5a.75.75 0 0 1 .75-.75H10a.75.75 0 0 1 0 1.5h-.995A3.75 3.75 0 0 0 12 15.75a3.714 3.714 0 0 0 3.615-2.807.755.755 0 0 1 .909-.545c.403.1.647.507.546.909Zm.18-2.807a.75.75 0 0 1-.75.75H14a.75.75 0 0 1 0-1.5h.995A3.75 3.75 0 0 0 12 8.25a3.714 3.714 0 0 0-3.615 2.807.75.75 0 1 1-1.456-.364 5.213 5.213 0 0 1 5.07-3.943 5.24 5.24 0 0 1 3.75 1.594V8a.75.75 0 0 1 1.5 0v2.5h.001Z"/></svg>
